X:287
T: Laodong huan de xinfu lai
N: C0669
O: China,Anhui
S: MM,]
N: Notenbeilage kopiert. Derzeitige chines. Kinderlieder
N: Vereinzelt Verzierungen. Vorspiel weggelassen. Die letzte Strophe
N: endet eine Oktave hoeher.
R: Xiaodiao, Yangliuqing diao]
M: 2/4
L: 1/16
K: F
A4A2c2 | d4d2c2 | A4A2c2 | A2G2F2G2 | A8 |
A4A2c2 | d4d2c2 | A4c2A2 | G2A2c4 | c4D4 | F4D4 |
F3Gc2A2 | G8 |
F2F2F2F2 | G4C4 | D2CDF2D2 | C8

@@@ Tune index: 6288
